img/element/cgv.svg

<svg width="34" height="14" viewBox="0 0 34 14" fill="none" xmlns="http://www.w3.org/2000/svg">
<path d="M5.084 13.18C3.488 13.18 2.27 12.748 1.43 11.884C0.602 11.008 0.158 9.814 0.0980001 8.302C0.0860001 7.978 0.08 7.45 0.08 6.718C0.08 5.974 0.0860001 5.434 0.0980001 5.098C0.158 3.586 0.602 2.398 1.43 1.534C2.27 0.657999 3.488 0.219999 5.084 0.219999C6.152 0.219999 7.058 0.411999 7.802 0.795999C8.546 1.168 9.104 1.66 9.476 2.272C9.86 2.884 10.07 3.538 10.106 4.234C10.106 4.342 10.064 4.432 9.98 4.504C9.908 4.564 9.818 4.594 9.71 4.594H8.81C8.69 4.594 8.594 4.564 8.522 4.504C8.45 4.444 8.396 4.342 8.36 4.198C8.156 3.274 7.784 2.626 7.244 2.254C6.716 1.882 5.996 1.696 5.084 1.696C2.996 1.696 1.91 2.86 1.826 5.188C1.814 5.512 1.808 6.01 1.808 6.682C1.808 7.354 1.814 7.864 1.826 8.212C1.91 10.528 2.996 11.686 5.084 11.686C5.984 11.686 6.704 11.5 7.244 11.128C7.784 10.756 8.156 10.114 8.36 9.202C8.396 9.058 8.45 8.956 8.522 8.896C8.594 8.836 8.69 8.806 8.81 8.806H9.71C9.818 8.806 9.908 8.842 9.98 8.914C10.064 8.974 10.106 9.058 10.106 9.166C10.07 9.862 9.86 10.516 9.476 11.128C9.104 11.74 8.546 12.238 7.802 12.622C7.058 12.994 6.152 13.18 5.084 13.18ZM17.1087 13.18C15.5487 13.18 14.3367 12.748 13.4727 11.884C12.6087 11.02 12.1467 9.85 12.0867 8.374C12.0747 8.014 12.0687 7.45 12.0687 6.682C12.0687 5.902 12.0747 5.338 12.0867 4.99C12.1347 3.526 12.5907 2.368 13.4547 1.516C14.3307 0.651999 15.5487 0.219999 17.1087 0.219999C18.1647 0.219999 19.0587 0.411999 19.7907 0.795999C20.5227 1.18 21.0747 1.642 21.4467 2.182C21.8187 2.71 22.0167 3.202 22.0407 3.658V3.694C22.0407 3.79 21.9987 3.874 21.9147 3.946C21.8427 4.006 21.7587 4.036 21.6627 4.036H20.6547C20.5467 4.036 20.4627 4.012 20.4027 3.964C20.3547 3.916 20.3067 3.826 20.2587 3.694C20.0667 3.13 19.7127 2.656 19.1967 2.272C18.6807 1.888 17.9847 1.696 17.1087 1.696C16.1007 1.696 15.3087 1.972 14.7327 2.524C14.1567 3.076 13.8507 3.928 13.8147 5.08C13.8027 5.428 13.7967 5.962 13.7967 6.682C13.7967 7.39 13.8027 7.924 13.8147 8.284C13.8507 9.448 14.1567 10.306 14.7327 10.858C15.3087 11.41 16.1007 11.686 17.1087 11.686C18.1287 11.686 18.9447 11.41 19.5567 10.858C20.1687 10.294 20.4747 9.454 20.4747 8.338V7.564H17.7207C17.6007 7.564 17.4987 7.522 17.4147 7.438C17.3427 7.354 17.3067 7.252 17.3067 7.132V6.592C17.3067 6.472 17.3427 6.37 17.4147 6.286C17.4987 6.202 17.6007 6.16 17.7207 6.16H21.7527C21.8847 6.16 21.9867 6.202 22.0587 6.286C22.1427 6.358 22.1847 6.46 22.1847 6.592V8.302C22.1847 9.274 21.9807 10.132 21.5727 10.876C21.1767 11.608 20.5947 12.178 19.8267 12.586C19.0587 12.982 18.1527 13.18 17.1087 13.18ZM28.0936 13C27.7816 13 27.5656 12.844 27.4456 12.532L23.3956 0.957999L23.3596 0.76C23.3596 0.664 23.3956 0.58 23.4676 0.508C23.5516 0.435999 23.6416 0.399999 23.7376 0.399999H24.6016C24.7336 0.399999 24.8356 0.435999 24.9076 0.508C24.9916 0.568 25.0456 0.64 25.0696 0.723999L28.6336 11.02L32.2156 0.723999C32.2396 0.64 32.2876 0.568 32.3596 0.508C32.4436 0.435999 32.5516 0.399999 32.6836 0.399999H33.5476C33.6436 0.399999 33.7276 0.435999 33.7996 0.508C33.8716 0.58 33.9076 0.664 33.9076 0.76C33.9076 0.844 33.9016 0.909999 33.8896 0.957999L29.8396 12.532C29.7196 12.844 29.5036 13 29.1916 13H28.0936Z" fill="#C4C4C4"/>
</svg>

<svg id="Calque_1" data-name="Calque 1" xmlns="http://www.w3.org/2000/svg" viewBox="0 0 34 14"><defs><style>.cls-1{fill:#c4c4c4;}</style></defs><path class="cls-1" d="M5.08,13.18a4.84,4.84,0,0,1-3.65-1.3A5.3,5.3,0,0,1,.1,8.3c0-.32,0-.85,0-1.58s0-1.29,0-1.62A5.28,5.28,0,0,1,1.43,1.53,4.85,4.85,0,0,1,5.08.22,5.79,5.79,0,0,1,7.8.8,4,4,0,0,1,9.48,2.27a4.12,4.12,0,0,1,.63,2A.35.35,0,0,1,10,4.5a.4.4,0,0,1-.27.09h-.9a.44.44,0,0,1-.29-.09.6.6,0,0,1-.16-.3A3,3,0,0,0,7.24,2.25,3.67,3.67,0,0,0,5.08,1.7C3,1.7,1.91,2.86,1.83,5.19c0,.32,0,.82,0,1.49s0,1.18,0,1.53c.08,2.32,1.17,3.48,3.25,3.48a3.76,3.76,0,0,0,2.16-.56A3,3,0,0,0,8.36,9.2a.6.6,0,0,1,.16-.3.44.44,0,0,1,.29-.09h.9a.36.36,0,0,1,.27.1.32.32,0,0,1,.13.26A4.08,4.08,0,0,1,7.8,12.62,6,6,0,0,1,5.08,13.18Zm12,0a4.91,4.91,0,0,1-3.64-1.3,5,5,0,0,1-1.38-3.51c0-.36,0-.92,0-1.69s0-1.34,0-1.69a4.87,4.87,0,0,1,1.36-3.47A5,5,0,0,1,17.11.22,5.65,5.65,0,0,1,19.79.8a4.53,4.53,0,0,1,1.66,1.38A2.86,2.86,0,0,1,22,3.66v0a.33.33,0,0,1-.13.26.37.37,0,0,1-.25.09h-1A.39.39,0,0,1,20.4,4a.65.65,0,0,1-.14-.27A3,3,0,0,0,19.2,2.27a3.47,3.47,0,0,0-2.09-.57,3.31,3.31,0,0,0-2.38.82,3.63,3.63,0,0,0-.92,2.56c0,.35,0,.88,0,1.6s0,1.24,0,1.6a3.63,3.63,0,0,0,.92,2.58,3.31,3.31,0,0,0,2.38.83,3.55,3.55,0,0,0,2.45-.83,3.28,3.28,0,0,0,.91-2.52V7.56H17.72a.45.45,0,0,1-.31-.12.48.48,0,0,1-.1-.31V6.59a.44.44,0,0,1,.1-.3.42.42,0,0,1,.31-.13h4a.43.43,0,0,1,.43.43V8.3a5.29,5.29,0,0,1-.61,2.58,4.16,4.16,0,0,1-1.74,1.71A6,6,0,0,1,17.11,13.18Z"/><path class="cls-1" d="M28.6,13.18c-3.43,0-5.22-2.46-5.22-6.43V.22h1.56l0,6.55c0,3.43,1.31,4.92,3.68,4.92s3.54-1.53,3.54-4.95V.22H33.7V6.66C33.7,10.83,31.92,13.18,28.6,13.18Z"/></svg>
